svgs/regular/boxes-stacked.svg

<svg xmlns="http://www.w3.org/2000/svg" viewBox="0 0 576 512"><!--! Font Awesome Pro 6.6.0 by @fontawesome - https://fontawesome.com License - https://fontawesome.com/license (Commercial License) Copyright 2024 Fonticons, Inc. --><path d="M384 48c8.8 0 16 7.2 16 16l0 128 48 0 0-128c0-35.3-28.7-64-64-64L192 0c-35.3 0-64 28.7-64 64l0 128 48 0 0-128c0-8.8 7.2-16 16-16l56 0 0 64c0 8.8 7.2 16 16 16l48 0c8.8 0 16-7.2 16-16l0-64 56 0zM327.6 512L512 512c35.3 0 64-28.7 64-64l0-160c0-35.3-28.7-64-64-64l-184.4 0c11.8 13.2 20.1 29.7 23.1 48l25.3 0 0 64c0 8.8 7.2 16 16 16l48 0c8.8 0 16-7.2 16-16l0-64 56 0c8.8 0 16 7.2 16 16l0 160c0 8.8-7.2 16-16 16l-161.3 0c-3.1 18.3-11.3 34.8-23.1 48zM256 272c8.8 0 16 7.2 16 16l0 160c0 8.8-7.2 16-16 16L64 464c-8.8 0-16-7.2-16-16l0-160c0-8.8 7.2-16 16-16l56 0 0 64c0 8.8 7.2 16 16 16l48 0c8.8 0 16-7.2 16-16l0-64 56 0zM64 224c-35.3 0-64 28.7-64 64L0 448c0 35.3 28.7 64 64 64l192 0c35.3 0 64-28.7 64-64l0-160c0-35.3-28.7-64-64-64L64 224z"/></svg>

<svg xmlns="http://www.w3.org/2000/svg" viewBox="0 0 576 512"><!--! Font Awesome Pro 6.4.2 by @fontawesome - https://fontawesome.com License - https://fontawesome.com/license (Commercial License) Copyright 2023 Fonticons, Inc. --><path d="M384 48c8.8 0 16 7.2 16 16V192h48V64c0-35.3-28.7-64-64-64H192c-35.3 0-64 28.7-64 64V192h48V64c0-8.8 7.2-16 16-16h56v64c0 8.8 7.2 16 16 16h48c8.8 0 16-7.2 16-16V48h56zM327.6 512H512c35.3 0 64-28.7 64-64V288c0-35.3-28.7-64-64-64H327.6c11.8 13.2 20.1 29.7 23.1 48H376v64c0 8.8 7.2 16 16 16h48c8.8 0 16-7.2 16-16V272h56c8.8 0 16 7.2 16 16V448c0 8.8-7.2 16-16 16H350.7c-3.1 18.3-11.3 34.8-23.1 48zM256 272c8.8 0 16 7.2 16 16V448c0 8.8-7.2 16-16 16H64c-8.8 0-16-7.2-16-16V288c0-8.8 7.2-16 16-16h56v64c0 8.8 7.2 16 16 16h48c8.8 0 16-7.2 16-16V272h56zM64 224c-35.3 0-64 28.7-64 64V448c0 35.3 28.7 64 64 64H256c35.3 0 64-28.7 64-64V288c0-35.3-28.7-64-64-64H64z"/></svg>
